designer/server/src/main/resources/web/static/assets/components/SubprocessInput.svg

<svg viewBox="-470 -470 3000 3000" xmlns="http://www.w3.org/2000/svg">
    <defs>
        <style>.a {fill: #fff}</style>
    </defs>
    <path class="a"
          d="M1920 384h-128v1024h128v384h-384v-128h-1280v128h-384v-384h128v-1024h-128v-384h384v128h1280v-128h384v384zm-256-256v128h128v-128h-128zm-1664 0v128h128v-128h-128zm128 1536v-128h-128v128h128zm1408-128v-128h128v-1024h-128v-128h-1280v128h-128v1024h128v128h1280zm256 128v-128h-128v128h128zm-640-1024h384v768h-896v-256h-384v-768h896v256zm-768 384h640v-512h-640v512zm1024 256v-512h-256v384h-384v128h640z"/>
    <rect class="b" width="32" height="32"/>
</svg>

<svg viewBox="-470 -470 3000 3000" xmlns="http://www.w3.org/2000/svg"><path fill="currentColor" d="M1920 384h-128v1024h128v384h-384v-128H256v128h-384v-384H0V384h-128V0h384v128h1280V0h384v384zm-256-256v128h128V128h-128zM0 128v128h128V128H0zm128 1536v-128H0v128h128zm1408-128v-128h128V384h-128V256H256v128H128v1024h128v128h1280zm256 128v-128h-128v128h128zM1152 640h384v768H640v-256H256V384h896v256zm-768 384h640V512H384v512zm1024 256V768h-256v384H768v128h640z"/></svg>
